svg/ls.svg

<?xml version="1.0" encoding="UTF-8" standalone="no"?>
<svg xmlns:svg="http://www.w3.org/2000/svg"
xmlns="http://www.w3.org/2000/svg" version="1.0"
width="900" height="600" viewBox="0 0 450 300">


<rect width="450" height="300" fill="white" />

<rect width="450" height="90" y="210" fill="#009543" />

<rect width="450" height="90" fill="#00209f" />


<g transform="matrix(1.136951,0,0,1.136951,-30.56399,-28.2596)">
<path d="M 224.57279,108.91288 C 223.06891,108.94527 221.60163,110.6111 221.60163,110.6111 L 221.7312,128.40688 L 216.11281,134.29282 L 220.66103,134.29282 L 220.62261,144.49785 L 193.71607,180.72859 L 189.73861,179.35383 L 182.78661,194.18391 C 182.78661,194.18391 199.98153,204.95086 224.93897,204.65648 C 252.33122,204.33074 267.21342,193.68724 267.21342,193.68724 L 260.02955,179.04787 L 256.51172,180.57766 L 229.2608,144.53489 L 229.22239,134.02527 L 233.77061,134.02527 L 227.58054,128.21253 L 227.61713,110.48154 C 227.61713,110.48154 226.07666,108.88049 224.57279,108.91288 z "
style="fill:black;stroke:black;stroke-width:0.87954509px;stroke-linecap:butt;stroke-linejoin:miter"
id="path1873" />
<path d="M 233.9532,151.51811 L 215.3486,151.51811 C 215.3486,151.51811 208.5958,137.29017 209.6904,127.34338 C 210.80495,117.21521 216.59331,112.42399 224.28906,112.33919 C 233.38789,112.23781 238.15674,116.79766 239.59739,126.93786 C 241.02497,136.98604 233.9532,151.51811 233.9532,151.51811 z "
style="fill:none;fill-opacity:0.75;stroke:black;stroke-width:4.39772797;stroke-linecap:butt;stroke-linejoin:miter;stroke-miterlimit:4;stroke-dasharray:none"
id="path2760" />
<path d="M 192.05034,185.43391 C 191.7462,185.83943 189.51585,190.30013 189.51585,190.30013 L 193.36828,189.48909 L 192.05034,185.43391 z "
style="fill:white;stroke:none;stroke-width:1;stroke-linecap:butt;stroke-linejoin:miter"
id="path3649" />
<path d="M 194.28069,191.21255 L 190.22551,192.53048 L 195.09173,194.4567 L 194.28069,191.21255 z "
style="fill:white;stroke:none;stroke-width:1;stroke-linecap:butt;stroke-linejoin:miter"
id="path3651" />
<path d="M 196.10552,185.53529 L 198.13312,191.51669 L 203.10072,190.09737 L 201.78278,187.25874 L 196.10552,185.53529 z "
style="fill:white;stroke:none;stroke-width:1;stroke-linecap:butt;stroke-linejoin:miter"
id="path3653" />
<path d="M 199.24829,193.64566 L 199.95795,196.07877 L 206.54763,197.70084 L 203.91176,192.12496 L 199.24829,193.64566 z "
style="fill:white;stroke:none;stroke-width:1;stroke-linecap:butt;stroke-linejoin:miter"
id="path3655" />
<path d="M 206.54763,188.57668 L 208.87936,194.15256 L 213.84696,192.22634 L 212.22489,189.79323 L 206.54763,188.57668 z "
style="fill:white;stroke:none;stroke-width:1;stroke-linecap:butt;stroke-linejoin:miter"
id="path3657" />
<path d="M 209.79178,196.18015 L 210.60281,198.30912 L 218.30767,199.4243 L 215.06352,194.35532 L 209.79178,196.18015 z "
style="fill:white;stroke:none;stroke-width:1;stroke-linecap:butt;stroke-linejoin:miter"
id="path3659" />
<path d="M 217.19249,190.19875 L 220.03112,195.16635 L 227.22907,192.53048 L 226.41804,190.60427 L 217.19249,190.19875 z "
style="fill:white;stroke:none;stroke-width:1;stroke-linecap:butt;stroke-linejoin:miter"
id="path3661" />
<path d="M 221.34906,196.99119 L 222.86975,199.62706 L 231.79116,199.32292 L 228.44563,194.35532 L 221.34906,196.99119 z "
style="fill:white;stroke:none;stroke-width:1;stroke-linecap:butt;stroke-linejoin:miter"
id="path3663" />
<path d="M 230.77736,190.40151 L 233.21047,194.55808 L 238.88773,191.82083 L 237.36704,189.59047 L 230.77736,190.40151 z "
style="fill:white;stroke:none;stroke-width:1;stroke-linecap:butt;stroke-linejoin:miter"
id="path3665" />
<path d="M 240.10429,193.54428 L 234.42703,196.38291 L 235.94772,198.81602 L 243.55119,197.59947 L 240.10429,193.54428 z "
style="fill:white;stroke:none;stroke-width:1;stroke-linecap:butt;stroke-linejoin:miter"
id="path3667" />
<path d="M 241.92912,189.18496 L 244.86913,192.83462 L 249.63397,189.08357 L 248.0119,187.36012 L 241.92912,189.18496 z "
style="fill:white;stroke:none;stroke-width:1;stroke-linecap:butt;stroke-linejoin:miter"
id="path3669" />
<path d="M 250.64777,191.11117 L 246.08569,194.55808 L 247.30224,196.68705 L 253.58778,195.06497 L 250.64777,191.11117 z "
style="fill:white;stroke:none;stroke-width:1;stroke-linecap:butt;stroke-linejoin:miter"
id="path3671" />
<path d="M 256.93331,183.91321 L 258.04848,185.53529 L 254.90572,190.19875 L 251.66157,186.04219 L 256.93331,183.91321 z "
style="fill:white;stroke:none;stroke-width:1;stroke-linecap:butt;stroke-linejoin:miter"
id="path3673" />
<path d="M 259.06228,187.9684 L 260.98849,191.82083 L 257.13607,193.13876 L 256.83193,191.31393 L 259.06228,187.9684 z "
style="fill:white;stroke:none;stroke-width:1;stroke-linecap:butt;stroke-linejoin:miter"
id="path3675" />
</g>
</svg>

<?xml version="1.0" encoding="UTF-8"?>
<svg width="900" height="600" version="1.0" viewBox="0 0 450 300" xmlns="http://www.w3.org/2000/svg">
  <rect width="450" height="300" fill="#fff"/>
  <rect y="210" width="450" height="90" fill="#009543"/>
  <rect width="450" height="90" fill="#00209f"/>
  <g transform="matrix(1.137 0 0 1.137 -30.564 -28.26)">
    <path d="m224.57 108.91c-1.5039 0.03239-2.9712 1.6982-2.9712 1.6982l0.12957 17.796-5.6184 5.8859h4.5482l-0.03842 10.205-26.907 36.231-3.9775-1.3748-6.952 14.83s17.195 10.767 42.152 10.473c27.392-0.32574 42.274-10.969 42.274-10.969l-7.1839-14.639-3.5178 1.5298-27.251-36.043-0.03841-10.51h4.5482l-6.1901-5.8127 0.03659-17.731s-1.5405-1.601-3.0443-1.5687z" stroke="#000" stroke-width=".87955px"/>
    <path d="m233.95 151.52h-18.605s-6.7528-14.228-5.6582-24.175c1.1146-10.128 6.9029-14.919 14.599-15.004 9.0988-0.10138 13.868 4.4585 15.308 14.599 1.4276 10.048-5.6442 24.58-5.6442 24.58z" fill="none" stroke="#000" stroke-width="4.3977"/>
    <path d="m192.05 185.43c-0.30414 0.40552-2.5345 4.8662-2.5345 4.8662l3.8524-0.81104-1.3179-4.0552z" fill="#fff"/>
    <path d="m194.28 191.21-4.0552 1.3179 4.8662 1.9262-0.81104-3.2442z" fill="#fff"/>
    <path d="m196.11 185.54 2.0276 5.9814 4.9676-1.4193-1.3179-2.8386-5.6773-1.7234z" fill="#fff"/>
    <path d="m199.25 193.65 0.70966 2.4331 6.5897 1.6221-2.6359-5.5759-4.6635 1.5207z" fill="#fff"/>
    <path d="m206.55 188.58 2.3317 5.5759 4.9676-1.9262-1.6221-2.4331-5.6773-1.2166z" fill="#fff"/>
    <path d="m209.79 196.18 0.81103 2.129 7.7049 1.1152-3.2442-5.069-5.2717 1.8248z" fill="#fff"/>
    <path d="m217.19 190.2 2.8386 4.9676 7.198-2.6359-0.81103-1.9262-9.2256-0.40552z" fill="#fff"/>
    <path d="m221.35 196.99 1.5207 2.6359 8.9214-0.30414-3.3455-4.9676-7.0966 2.6359z" fill="#fff"/>
    <path d="m230.78 190.4 2.4331 4.1566 5.6773-2.7372-1.5207-2.2304-6.5897 0.81104z" fill="#fff"/>
    <path d="m240.1 193.54-5.6773 2.8386 1.5207 2.4331 7.6035-1.2166-3.4469-4.0552z" fill="#fff"/>
    <path d="m241.93 189.18 2.94 3.6497 4.7648-3.751-1.6221-1.7234-6.0828 1.8248z" fill="#fff"/>
    <path d="m250.65 191.11-4.5621 3.4469 1.2166 2.129 6.2855-1.6221-2.94-3.9538z" fill="#fff"/>
    <path d="m256.93 183.91 1.1152 1.6221-3.1428 4.6635-3.2442-4.1566 5.2717-2.129z" fill="#fff"/>
    <path d="m259.06 187.97 1.9262 3.8524-3.8524 1.3179-0.30414-1.8248 2.2304-3.3455z" fill="#fff"/>
  </g>
</svg>
